X: 42753
T: White Houses Of Shieldaig, The
R: reel
M: 4/4
K: Dmajor
g|fe d2 eAAB|dedB B2 Gg|fe d2 eAAB|dedB AAA:|
B|d2 eA ~A2 eA|fAed B2 GB|d2 eA ~A2 ef|gedB AAA:|

